flaticon/constructions/drill-3.svg

<svg xmlns="http://www.w3.org/2000/svg" width="32" height="32" viewBox="0 0 24 24">
    <path d="M22 3.800781L18 3.800781C17.761719 3.800781 17.601562 3.960938 17.601562 4.199219 17.601562 4.441406 17.761719 4.601562 18 4.601562L22 4.601562C22.238281 4.601562 22.398438 4.441406 22.398438 4.199219 22.398438 3.960938 22.238281 3.800781 22 3.800781zM22 5.398438L18.800781 5.398438C18.558594 5.398438 18.398438 5.558594 18.398438 5.800781 18.398438 6.039062 18.558594 6.199219 18.800781 6.199219L22 6.199219C22.238281 6.199219 22.398438 6.039062 22.398438 5.800781 22.398438 5.558594 22.238281 5.398438 22 5.398438zM22 7L19.601562 7C19.359375 7 19.199219 7.160156 19.199219 7.398438 19.199219 7.640625 19.359375 7.800781 19.601562 7.800781L22 7.800781C22.238281 7.800781 22.398438 7.640625 22.398438 7.398438 22.398438 7.160156 22.238281 7 22 7zM22 7"/>
    <path d="M 22.800781 2.199219 L 10.398438 2.199219 C 9.71875 2.199219 9.199219 2.71875 9.199219 3.398438 L 8 3.398438 C 7.320312 3.398438 6.800781 3.921875 6.800781 4.601562 L 6.800781 5 L 6 5 C 5.121094 5 4.398438 5.71875 4.398438 6.601562 L 0.398438 6.601562 C 0.160156 6.601562 0 6.761719 0 7 C 0 7.238281 0.160156 7.398438 0.398438 7.398438 L 4.398438 7.398438 C 4.398438 8.28125 5.121094 9 6 9 L 6.800781 9 L 6.800781 9.398438 C 6.800781 10.078125 7.320312 10.601562 8 10.601562 L 9.199219 10.601562 C 9.199219 11.28125 9.71875 11.800781 10.398438 11.800781 L 13.601562 11.800781 L 13.601562 19 C 13.601562 20.558594 14.839844 21.800781 16.398438 21.800781 L 20 21.800781 C 20.878906 21.800781 21.601562 21.078125 21.601562 20.199219 L 21.601562 11.800781 L 22.800781 11.800781 C 23.480469 11.800781 24 11.28125 24 10.601562 L 24 3.398438 C 24 2.71875 23.480469 2.199219 22.800781 2.199219 Z M 6 8.199219 C 5.558594 8.199219 5.199219 7.839844 5.199219 7.398438 L 5.199219 6.601562 C 5.199219 6.160156 5.558594 5.800781 6 5.800781 L 6.800781 5.800781 L 6.800781 8.199219 Z M 8 9.800781 C 7.761719 9.800781 7.601562 9.640625 7.601562 9.398438 L 7.601562 4.601562 C 7.601562 4.359375 7.761719 4.199219 8 4.199219 L 9.199219 4.199219 L 9.199219 5 L 8.800781 5 C 8.558594 5 8.398438 5.160156 8.398438 5.398438 C 8.398438 5.640625 8.558594 5.800781 8.800781 5.800781 L 9.199219 5.800781 L 9.199219 6.601562 L 8.800781 6.601562 C 8.558594 6.601562 8.398438 6.761719 8.398438 7 C 8.398438 7.238281 8.558594 7.398438 8.800781 7.398438 L 9.199219 7.398438 L 9.199219 8.199219 L 8.800781 8.199219 C 8.558594 8.199219 8.398438 8.359375 8.398438 8.601562 C 8.398438 8.839844 8.558594 9 8.800781 9 L 9.199219 9 L 9.199219 9.800781 Z M 23.199219 10.601562 C 23.199219 10.839844 23.039062 11 22.800781 11 L 21.199219 11 C 20.960938 11 20.800781 11.160156 20.800781 11.398438 L 20.800781 20.199219 C 20.800781 20.640625 20.441406 21 20 21 L 16.398438 21 C 15.28125 21 14.398438 20.121094 14.398438 19 L 14.398438 11.398438 C 14.398438 11.160156 14.238281 11 14 11 L 10.398438 11 C 10.160156 11 10 10.839844 10 10.601562 L 10 3.398438 C 10 3.160156 10.160156 3 10.398438 3 L 22.800781 3 C 23.039062 3 23.199219 3.160156 23.199219 3.398438 Z M 23.199219 10.601562"/>
    <path d="M 18.398438 13 L 16 13 C 15.558594 13 15.199219 13.359375 15.199219 13.800781 L 15.199219 18.601562 C 15.199219 19.480469 15.921875 20.199219 16.800781 20.199219 L 18.398438 20.199219 C 18.839844 20.199219 19.199219 19.839844 19.199219 19.398438 L 19.199219 13.800781 C 19.199219 13.359375 18.839844 13 18.398438 13 Z M 18.398438 13.800781 L 18.398438 15.800781 L 17.921875 15.800781 L 17.320312 13.800781 Z M 16.800781 19.398438 C 16.359375 19.398438 16 19.039062 16 18.601562 L 16 13.800781 L 16.480469 13.800781 L 17.199219 16.320312 C 17.28125 16.480469 17.441406 16.601562 17.601562 16.601562 L 18.398438 16.601562 L 18.398438 19.398438 Z M 16.800781 19.398438"/>
</svg>

<svg xmlns="http://www.w3.org/2000/svg" width="32" height="32" viewBox="0 0 24 24">
    <path d="M22 3.8h-4c-.238 0-.398.16-.398.4 0 .241.16.402.398.402h4c.238 0 .398-.16.398-.403 0-.238-.16-.398-.398-.398zm0 0M22 5.398h-3.2c-.241 0-.402.16-.402.403 0 .238.16.398.403.398H22c.238 0 .398-.16.398-.398 0-.242-.16-.403-.398-.403zm0 0M22 7h-2.398c-.243 0-.403.16-.403.398 0 .243.16.403.403.403H22c.238 0 .398-.16.398-.403 0-.238-.16-.398-.398-.398zm0 0"/>
    <path d="M22.8 2.2H10.399c-.68 0-1.199.519-1.199 1.198H8c-.68 0-1.2.524-1.2 1.204V5H6c-.879 0-1.602.719-1.602 1.602h-4C.16 6.602 0 6.762 0 7c0 .238.16.398.398.398h4C4.398 8.281 5.121 9 6 9h.8v.398c0 .68.52 1.204 1.2 1.204h1.2c0 .68.519 1.199 1.198 1.199h3.204V19c0 1.559 1.238 2.8 2.796 2.8H20c.879 0 1.602-.722 1.602-1.6v-8.4H22.8c.68 0 1.199-.519 1.199-1.198V3.398c0-.68-.52-1.199-1.2-1.199zM6 8.2c-.441 0-.8-.36-.8-.802v-.796c0-.442.359-.801.8-.801h.8v2.398zm2 1.6c-.238 0-.398-.16-.398-.402V4.602c0-.243.16-.403.398-.403h1.2V5h-.4c-.241 0-.402.16-.402.398 0 .243.16.403.403.403h.398v.8h-.398c-.242 0-.403.16-.403.399 0 .238.16.398.403.398h.398V8.2h-.398c-.242 0-.403.16-.403.403 0 .238.16.398.403.398h.398v.8zm15.2.802c0 .238-.16.398-.4.398h-1.6c-.24 0-.4.16-.4.398V20.2c0 .442-.359.801-.8.801h-3.602c-1.117 0-2-.879-2-2v-7.602c0-.238-.16-.398-.398-.398h-3.602c-.238 0-.398-.16-.398-.398V3.398c0-.238.16-.398.398-.398h12.403c.238 0 .398.16.398.398zm0 0"/>
    <path d="M18.398 13H16c-.441 0-.8.36-.8.8v4.802c0 .878.722 1.597 1.6 1.597h1.598c.442 0 .801-.36.801-.8V13.8c0-.442-.36-.801-.8-.801zm0 .8v2h-.476l-.602-2zm-1.597 5.598c-.442 0-.801-.359-.801-.796V13.8h.48l.72 2.52c.081.16.241.28.402.28h.796v2.797zm0 0"/>
</svg>
